src/app/components/images/Position_marker_8.svg

<svg width="43" height="43" fill="none" xmlns="http://www.w3.org/2000/svg"><mask id="a" style="mask-type:alpha" maskUnits="userSpaceOnUse" x="4" y="4" width="35" height="35"><circle cx="21.5" cy="21.5" r="17.5" fill="#B26060"/></mask><g mask="url(#a)"><path fill="#F3E9E6" d="M-17.724-9.276H65.15v63.965h-82.874z"/><path d="M44.62 4C28.188 39.505 16.87 42.223-7.939 9.36l3.514 34.462 52.56-5.36L44.62 4z" fill="#E7D8D8"/></g><path d="M21.96 26.72c.896 0 1.64-.264 2.232-.792.608-.528.912-1.056.912-1.584 0-.544-.248-1.048-.744-1.512-.496-.48-.992-.824-1.488-1.032-.48-.208-.792-.312-.936-.312-.144 0-.416.128-.816.384-.384.24-.792.624-1.224 1.152-.432.528-.648 1.056-.648 1.584s.232 1.016.696 1.464c.464.432 1.136.648 2.016.648zm.408-7.992c.256 0 .68-.248 1.272-.744.608-.512.912-.96.912-1.344 0-.384-.2-.712-.6-.984-.384-.288-.888-.432-1.512-.432a3.04 3.04 0 0 0-1.704.504c-.496.336-.744.736-.744 1.2 0 .464.336.88 1.008 1.248.672.368 1.128.552 1.368.552zm6.12 5.304c0 1.44-.64 2.68-1.92 3.72-1.264 1.024-2.8 1.536-4.608 1.536-1.808 0-3.304-.416-4.488-1.248-1.168-.832-1.752-1.872-1.752-3.12 0-1.008.424-2 1.272-2.976.432-.496 1.048-.992 1.848-1.488l.216-.12v-.096c-1.68-.832-2.52-1.856-2.52-3.072 0-.736.208-1.4.624-1.992a4.34 4.34 0 0 1 1.584-1.416c1.28-.688 2.56-1.032 3.84-1.032 1.92 0 3.392.56 4.416 1.68.528.576.792 1.216.792 1.92s-.304 1.4-.912 2.088c-.592.672-1.232 1.184-1.92 1.536-.064.048-.08.088-.048.12.048.016.208.096.48.24.272.128.512.256.72.384.224.128.488.32.792.576.32.24.584.48.792.72.528.64.792 1.32.792 2.04z" fill="#060606"/><g filter="url(#b)"><circle cx="21.5" cy="21.5" r="16.5" stroke="#C4C0C0" stroke-width="2"/></g><defs><filter id="b" x="0" y="0" width="43" height="43" filterUnits="userSpaceOnUse" color-interpolation-filters="sRGB"><feFlood flood-opacity="0" result="BackgroundImageFix"/><feBlend in="SourceGraphic" in2="BackgroundImageFix" result="shape"/><feGaussianBlur stdDeviation="2" result="effect1_foregroundBlur_53_2"/></filter></defs></svg>

<svg width="43" height="43" viewBox="0 0 43 43" fill="none" xmlns="http://www.w3.org/2000/svg">
<mask id="mask0_53_2" style="mask-type:alpha" maskUnits="userSpaceOnUse" x="4" y="4" width="35" height="35">
<circle cx="21.5" cy="21.5" r="17.5" fill="#B26060"/>
</mask>
<g mask="url(#mask0_53_2)">
<rect x="-17.7241" y="-9.27586" width="82.8736" height="63.9655" fill="#F3E9E6"/>
<path d="M44.6204 4C28.1879 39.5046 16.8689 42.2229 -7.93866 9.3595L-4.42453 43.8216L48.1346 38.4621L44.6204 4Z" fill="#E7D8D8"/>
</g>
<path d="M21.96 26.72C22.856 26.72 23.6 26.456 24.192 25.928C24.8 25.4 25.104 24.872 25.104 24.344C25.104 23.8 24.856 23.296 24.36 22.832C23.864 22.352 23.368 22.008 22.872 21.8C22.392 21.592 22.08 21.488 21.936 21.488C21.792 21.488 21.52 21.616 21.12 21.872C20.736 22.112 20.328 22.496 19.896 23.024C19.464 23.552 19.248 24.08 19.248 24.608C19.248 25.136 19.48 25.624 19.944 26.072C20.408 26.504 21.08 26.72 21.96 26.72ZM22.368 18.728C22.624 18.728 23.048 18.48 23.64 17.984C24.248 17.472 24.552 17.024 24.552 16.64C24.552 16.256 24.352 15.928 23.952 15.656C23.568 15.368 23.064 15.224 22.44 15.224C21.816 15.224 21.248 15.392 20.736 15.728C20.24 16.064 19.992 16.464 19.992 16.928C19.992 17.392 20.328 17.808 21 18.176C21.672 18.544 22.128 18.728 22.368 18.728ZM28.488 24.032C28.488 25.472 27.848 26.712 26.568 27.752C25.304 28.776 23.768 29.288 21.96 29.288C20.152 29.288 18.656 28.872 17.472 28.04C16.304 27.208 15.72 26.168 15.72 24.92C15.72 23.912 16.144 22.92 16.992 21.944C17.424 21.448 18.04 20.952 18.84 20.456L19.056 20.336V20.24C17.376 19.408 16.536 18.384 16.536 17.168C16.536 16.432 16.744 15.768 17.16 15.176C17.576 14.568 18.104 14.096 18.744 13.76C20.024 13.072 21.304 12.728 22.584 12.728C24.504 12.728 25.976 13.288 27 14.408C27.528 14.984 27.792 15.624 27.792 16.328C27.792 17.032 27.488 17.728 26.88 18.416C26.288 19.088 25.648 19.6 24.96 19.952C24.896 20 24.88 20.04 24.912 20.072C24.96 20.088 25.12 20.168 25.392 20.312C25.664 20.44 25.904 20.568 26.112 20.696C26.336 20.824 26.6 21.016 26.904 21.272C27.224 21.512 27.488 21.752 27.696 21.992C28.224 22.632 28.488 23.312 28.488 24.032Z" fill="#060606"/>
<g filter="url(#filter0_f_53_2)">
<circle cx="21.5" cy="21.5" r="16.5" stroke="#C4C0C0" stroke-width="2"/>
</g>
<defs>
<filter id="filter0_f_53_2" x="0" y="0" width="43" height="43" filterUnits="userSpaceOnUse" color-interpolation-filters="sRGB">
<feFlood flood-opacity="0" result="BackgroundImageFix"/>
<feBlend mode="normal" in="SourceGraphic" in2="BackgroundImageFix" result="shape"/>
<feGaussianBlur stdDeviation="2" result="effect1_foregroundBlur_53_2"/>
</filter>
</defs>
</svg>
